arcmax.svg

<?xml version="1.0" encoding="UTF-8"?>
<svg viewBox="0 0 24 24" version="1.1" xmlns="http://www.w3.org/2000/svg" xmlns:xlink="http://www.w3.org/1999/xlink">
    <title>Arc Max</title>
        <path d="M12.4104964,0 L12.6417744,0 C13.171657,0.0301205371 13.6890062,0.278734314 14.0391904,0.692293864 C14.2964456,0.978200274 14.4158339,1.35542555 14.592265,1.69296354 C15.170942,2.93460082 15.7644555,4.16905938 16.3389011,5.41260731 C16.4722153,5.29977437 16.6073506,5.18933249 16.742486,5.07889061 C16.4229924,4.44731769 16.1225132,3.80618051 15.8053228,3.17365227 C15.4802053,2.5043027 15.5740448,1.65614774 16.0203181,1.0680834 C16.3379906,0.640181864 16.8320941,0.357143077 17.3527106,0.300727158 C18.0140327,0.221361968 18.7092592,0.519220398 19.111398,1.06760297 C19.2303042,1.22538024 19.3194839,1.40371074 19.4035216,1.58300208 C19.5525829,1.89950641 19.7165343,2.20788222 19.8665061,2.52390613 C20.1646822,2.27529595 20.466554,2.03146237 20.7651586,1.78380198 C21.4287839,1.18091634 22.493691,1.12880434 23.2000047,1.68387969 C23.6816284,2.04054621 23.9881066,2.63530333 23.9988188,3.24679792 C24.0164405,3.7574149 23.8362601,4.27376381 23.5004839,4.65051418 C23.3453702,4.82693404 23.1573163,4.96653809 22.9780464,5.11522599 C22.5438244,5.47237293 22.1072993,5.8275761 21.6730773,6.18524212 C21.9633263,6.78240135 22.2507902,7.3809411 22.5530905,7.97235736 C22.741198,8.34244809 22.8331629,8.7689194 22.7801907,9.18578226 C22.7109894,9.85942249 22.2791241,10.4743076 21.6865212,10.7649907 C21.2239653,10.9978021 20.6704086,11.0274558 20.1860532,10.8481534 C19.720712,10.6822697 19.3264468,10.3241619 19.1011677,9.87427693 C18.9140243,9.4994372 18.7352365,9.12029023 18.5503962,8.74401475 C18.3651275,8.88554602 18.1965163,9.05049096 18.0033205,9.18103326 C17.8547412,9.28048617 17.6452628,9.2312291 17.5347657,9.09494382 C17.4061113,8.93911033 17.4274823,8.68139421 17.5881663,8.55709188 C17.8695777,8.31853742 18.1570416,8.08710647 18.4431128,7.85473676 C18.6214722,7.69553479 18.9200768,7.77350676 19.010167,7.99532927 C19.2628159,8.51501352 19.5219458,9.03138452 19.7782905,9.54913604 C19.9737895,9.93071273 20.3768923,10.1874349 20.7957957,10.1984238 C21.2337134,10.2208988 21.6679354,9.96892562 21.8857695,9.57928667 C22.0766086,9.24558654 22.1068172,8.8171825 21.9530961,8.46244319 C21.6326385,7.78018849 21.2871677,7.11179425 20.9569619,6.43478554 C20.8975088,6.30523722 20.8097217,6.17232042 20.8338779,6.02217469 C20.8445901,5.89886633 20.9365014,5.8099054 21.0242885,5.73673766 C21.6127136,5.25674621 22.1992106,4.77434161 22.7876357,4.29432256 C23.0184316,4.10881886 23.182383,3.83582311 23.2362657,3.53939711 C23.3421565,3.01205371 23.0700112,2.43784982 22.6009208,2.20023412 C22.2001747,1.98126101 21.6805223,2.02285343 21.32059,2.30924026 C20.8696568,2.67402978 20.4238121,3.04599802 19.9728789,3.41078754 C19.8015361,3.56282735 19.5140723,3.50019576 19.4127878,3.29317799 C19.1406425,2.75674522 18.8922249,2.2069269 18.6121525,1.67384053 C18.3776608,1.24163176 17.8723629,0.990630507 17.3972736,1.06617275 C16.9282368,1.12688817 16.5158678,1.50028664 16.3983542,1.97169675 C16.3143164,2.27529595 16.352827,2.6080518 16.4949253,2.88726543 C16.8418423,3.60059847 17.2045599,4.30627789 17.5436033,5.02391265 C17.6257664,5.18024865 17.5718837,5.37961832 17.4372304,5.48527807 C17.1869382,5.70139625 16.9249695,5.90411232 16.6704995,6.11588462 C16.8609101,6.53086997 17.0995796,6.92962037 17.2078271,7.37806962 C17.3508359,8.02829617 17.1613894,8.74688624 16.7099742,9.22692186 C16.3398652,9.62948251 15.8057513,9.86803696 15.2661205,9.86229398 C14.6410594,9.86759519 14.0224792,9.54201254 13.6625469,9.01559133 C13.4735288,8.74738323 13.3639423,8.43328653 13.2185767,8.14067078 C12.990084,7.66543938 12.7685542,7.18639774 12.5424181,6.71017236 C12.2242636,7.38524834 11.9061626,8.0608213 11.5880617,8.73639426 C11.274567,9.39424131 10.5942306,9.84368453 9.88229295,9.86135523 C9.20377759,9.89388036 8.52344115,9.53196233 8.15702786,8.94292058 C7.77015413,8.34863283 7.72371643,7.54157881 8.04187093,6.90526794 C8.43056574,6.08148198 8.81786797,5.25770153 9.20656278,4.43393214 C9.05519837,3.61015722 8.91449267,2.78447166 8.7588969,1.962138 C8.63956219,1.37406814 8.04695926,0.94712193 7.46924639,1.0312676 C7.0870325,1.06664765 6.77632303,1.33343105 6.54788381,1.63176769 C6.10112848,2.22748566 5.65389109,2.8227232 5.20712504,3.41844116 C5.08684229,3.59868231 4.83002626,3.6464926 4.65587684,3.52075452 C4.06515392,3.14018285 3.4767502,2.7557899 2.88788586,2.37234675 C2.69608797,2.23799972 2.48570965,2.13042934 2.25862018,2.07831734 C1.82625678,1.96356823 1.34141932,2.13521147 1.06463561,2.49426353 C0.848220923,2.76678439 0.759057321,3.13827221 0.822677509,3.48393872 C1.13708271,5.36766851 1.449158,7.25188977 1.76309722,9.13558643 C1.8090743,9.46310182 1.99065803,9.76814228 2.25629561,9.95556215 C2.62456748,10.2290162 3.14888503,10.2448094 3.53665859,10.005261 C3.82784494,9.82789134 4.04054247,9.5171079 4.09719968,9.17291579 C4.14688856,8.91994866 4.083729,8.66515925 4.04332766,8.4160576 C3.94672974,7.82513833 3.84548805,7.23466084 3.74842951,6.64374157 C3.69316489,6.40656764 3.8793924,6.14553826 4.11902594,6.14172802 C4.32336254,6.13361054 4.47243453,6.29899725 4.63683578,6.39795318 C4.99675207,6.63369136 5.48110213,6.62988112 5.84473023,6.40469013 C6.06256429,6.28563379 6.19630702,6.06568879 6.35190278,5.87826892 C6.49121589,5.69946352 6.77959027,5.68179282 6.93282933,5.851045 C7.02854349,5.94188344 7.04895037,6.07954924 7.0712319,6.20484555 C7.17155233,6.83259718 7.27883574,7.45841608 7.38097726,8.08567072 C7.41445311,8.29987274 7.48547548,8.51313601 7.62344956,8.68045545 C7.72928681,8.80669052 7.84910358,8.95534529 7.80684366,9.13558643 C7.7664584,9.42963793 7.3856371,9.58502965 7.1654999,9.38949231 C6.86228902,9.09637956 6.66952167,8.69094743 6.59940984,8.27071609 C6.52790542,7.85716648 6.46427452,7.44218113 6.39228805,7.02907328 C5.89539928,7.38193508 5.25309141,7.49044423 4.67259335,7.3197563 C4.73482629,7.66494239 4.78869831,8.01206121 4.84720875,8.35818606 C4.90108077,8.64649458 4.94427265,8.94242359 4.89968817,9.23553633 C4.81423637,9.92828301 4.35169115,10.5531631 3.72985443,10.829047 C3.14841904,11.0967581 2.44159115,11.0470592 1.90056246,10.7009344 C1.42222735,10.4054471 1.07902755,9.89051188 0.981969005,9.3253808 C0.661527434,7.41009776 0.3448057,5.49436191 0.025295026,3.5790844 C-0.0703724789,2.98718772 0.109352088,2.35848629 0.496199573,1.9105009 C0.80502904,1.54857735 1.24064361,1.29948674 1.70597403,1.23828537 C2.25351042,1.15509503 2.81126097,1.33821318 3.26869644,1.6432426 C3.77350694,1.97313249 4.27877806,2.30254748 4.78590777,2.62909098 C5.16161395,2.12851869 5.53777005,1.6284213 5.91302097,1.12688817 C6.13080147,0.842417508 6.3927701,0.584243053 6.70947845,0.419774666 C7.08006952,0.220883755 7.51380944,0.155383438 7.92574989,0.223752482 C8.61353136,0.33275972 9.22514858,0.845763897 9.46708526,1.51797943 C9.6282514,2.05632284 9.67886689,2.6228731 9.79638052,3.17269142 C10.1423334,2.46940307 10.4595238,1.75129342 10.8060122,1.04800506 C11.1194533,0.444158024 11.7505669,0.047332241 12.4104964,0 Z M12.4068007,0.833333663 C12.1592401,0.862020941 11.9196065,0.971027074 11.737123,1.14697203 C11.512808,1.35350938 11.4101844,1.65328177 11.2801374,1.92388646 C10.4808947,3.61924106 9.68213413,5.31412077 8.88476611,7.01040861 C8.79928217,7.18639774 8.70313952,7.36039892 8.6622722,7.55450051 C8.58567945,7.88394863 8.65905852,8.24343695 8.84668398,8.51981774 C9.06537503,8.84727791 9.45085616,9.04999398 9.83676579,9.0371275 C10.2408327,9.03375902 10.6313486,8.79614332 10.8338641,8.43709678 C11.2964201,7.47895827 11.7399082,6.50938903 12.200161,5.54981478 C12.2939469,5.38105407 12.5159052,5.30025479 12.6896047,5.38152897 C12.895816,5.45659631 12.9515198,5.69659203 13.0411815,5.87683318 C13.4354467,6.7121051 13.8288013,7.54831577 14.222156,8.38402946 C14.4743229,8.90851793 15.1240222,9.17529029 15.6576541,8.97064149 C16.1173713,8.81237828 16.4545401,8.34001837 16.4522369,7.83899879 C16.4698586,7.51579064 16.3040862,7.23129236 16.1768244,6.94972079 C15.3715293,5.24240533 14.5671983,3.5346205 13.7632958,1.82683566 C13.6574585,1.62268385 13.5808122,1.39749838 13.4266091,1.22442492 C13.172139,0.938518507 12.7815696,0.78408763 12.4068007,0.833333663 Z" fill="#FFFFFF"></path>
</svg>

<svg viewBox="0 0 24 24" xmlns="http://www.w3.org/2000/svg"><path d="M12.41 0h.232c.53.03 1.047.279 1.397.692.257.286.377.663.553 1.001.579 1.242 1.172 2.476 1.747 3.72.133-.113.268-.224.403-.334-.319-.632-.62-1.273-.937-1.905a2.07 2.07 0 0 1 .215-2.106c.318-.428.812-.71 1.333-.767a1.934 1.934 0 0 1 1.758.767c.12.157.208.336.293.515.149.317.313.625.463.94.298-.248.6-.492.898-.74.664-.602 1.729-.654 2.435-.1.482.358.788.952.799 1.564A2.028 2.028 0 0 1 23.5 4.65c-.155.176-.343.316-.522.464l-1.305 1.07c.29.597.578 1.196.88 1.787.188.37.28.797.227 1.214a2.019 2.019 0 0 1-1.093 1.579 1.901 1.901 0 0 1-1.5.083 1.976 1.976 0 0 1-1.086-.974c-.187-.375-.366-.754-.55-1.13-.186.142-.354.306-.548.437-.148.1-.358.05-.468-.086-.129-.156-.108-.414.053-.538.282-.238.569-.47.855-.702.178-.16.477-.081.567.14.253.52.512 1.036.768 1.554.196.382.599.638 1.018.65.438.022.872-.23 1.09-.62.19-.333.22-.762.067-1.117-.32-.682-.666-1.35-.996-2.027-.06-.13-.147-.263-.123-.413.01-.123.103-.212.19-.285.589-.48 1.175-.963 1.764-1.443a1.27 1.27 0 0 0 .448-.755c.106-.527-.166-1.101-.635-1.339a1.18 1.18 0 0 0-1.28.11c-.451.364-.897.736-1.348 1.1-.171.153-.459.09-.56-.117-.272-.536-.52-1.086-.8-1.62a1.2 1.2 0 0 0-1.216-.607c-.469.06-.881.434-.999.906-.084.303-.045.636.097.915.347.714.71 1.42 1.049 2.137a.377.377 0 0 1-.107.461c-.25.216-.512.42-.767.63.19.416.43.815.538 1.263a2.093 2.093 0 0 1-.498 1.849 1.96 1.96 0 0 1-1.444.635 1.957 1.957 0 0 1-1.603-.846c-.19-.269-.3-.583-.444-.875-.229-.476-.45-.955-.677-1.43l-.954 2.025c-.313.658-.994 1.108-1.706 1.125a1.962 1.962 0 0 1-1.725-.918 2.098 2.098 0 0 1-.115-2.038l1.165-2.471c-.152-.824-.293-1.65-.448-2.472-.12-.588-.712-1.015-1.29-.93-.382.035-.693.301-.921.6l-1.34 1.786a.396.396 0 0 1-.552.103c-.59-.38-1.18-.765-1.768-1.149a1.815 1.815 0 0 0-.63-.294 1.162 1.162 0 0 0-1.193.416 1.25 1.25 0 0 0-.242.99l.94 5.652c.046.327.228.632.493.82.369.273.893.289 1.28.05a1.22 1.22 0 0 0 .561-.833c.05-.253-.013-.508-.054-.757-.096-.59-.198-1.181-.295-1.772-.055-.237.131-.498.371-.502.204-.008.353.157.518.256.36.236.844.232 1.208.007.218-.12.351-.34.507-.527a.389.389 0 0 1 .58-.027c.097.09.117.229.14.354.1.628.207 1.253.309 1.88.033.215.104.428.242.595.106.127.226.275.184.456-.04.294-.421.449-.642.253A2.024 2.024 0 0 1 6.6 8.271c-.071-.414-.135-.829-.207-1.242a2.012 2.012 0 0 1-1.72.29c.063.346.117.693.175 1.04.054.287.097.583.053.877a2.045 2.045 0 0 1-1.17 1.593 1.937 1.937 0 0 1-1.83-.128 2.041 2.041 0 0 1-.918-1.376C.662 7.41.345 5.495.025 3.58a2.085 2.085 0 0 1 .471-1.668 1.948 1.948 0 0 1 1.21-.673c.548-.083 1.105.1 1.563.405.505.33 1.01.66 1.517.986.376-.5.752-1 1.127-1.502.218-.285.48-.543.796-.707.371-.2.805-.265 1.217-.196.688.109 1.3.622 1.541 1.294.161.538.212 1.105.33 1.655.345-.704.663-1.422 1.009-2.125.313-.604.945-1 1.604-1.048Zm-.003.833a1.163 1.163 0 0 0-.67.314c-.224.207-.327.506-.457.777-.8 1.695-1.598 3.39-2.395 5.086-.086.176-.182.35-.223.545-.076.329-.003.688.185.965.218.327.604.53.99.517.404-.003.794-.24.997-.6.462-.958.906-1.928 1.366-2.887a.39.39 0 0 1 .49-.168c.206.075.262.315.351.495l1.181 2.507c.252.525.902.791 1.436.587.46-.159.797-.631.794-1.132.018-.323-.148-.608-.275-.89l-2.414-5.122c-.106-.204-.182-.43-.336-.603a1.184 1.184 0 0 0-1.02-.39Z" fill="#FFF"/></svg>
